assets/icons/custom/suitcase.svg

<svg viewBox="0 0 16 16" xmlns="http://www.w3.org/2000/svg">
    <path d="M2.33325 14.3333C2.06659 14.3333 1.83325 14.2333 1.63325 14.0333C1.43325 13.8333 1.33325 13.6 1.33325 13.3333V5.33329C1.33325 5.06663 1.43325 4.83329 1.63325 4.63329C1.83325 4.43329 2.06659 4.33329 2.33325 4.33329H5.33325V2.66663C5.33325 2.39996 5.43325 2.16663 5.63325 1.96663C5.83325 1.76663 6.06659 1.66663 6.33325 1.66663H9.66659C9.93325 1.66663 10.1666 1.76663 10.3666 1.96663C10.5666 2.16663 10.6666 2.39996 10.6666 2.66663V4.33329H13.6666C13.9333 4.33329 14.1666 4.43329 14.3666 4.63329C14.5666 4.83329 14.6666 5.06663 14.6666 5.33329V13.3333C14.6666 13.6 14.5666 13.8333 14.3666 14.0333C14.1666 14.2333 13.9333 14.3333 13.6666 14.3333H2.33325ZM2.33325 13.3333H13.6666V5.33329H2.33325V13.3333ZM6.33325 4.33329H9.66659V2.66663H6.33325V4.33329Z" fill="inherit"/>
    <rect x="5.21899" y="7.44775" width="1.33333" height="6.66667" rx="0.666667" transform="rotate(-45 5.21899 7.44775)" fill="inherit"/>
    <rect x="6.16187" y="12.1616" width="1.33333" height="6.66667" rx="0.666667" transform="rotate(-135 6.16187 12.1616)" fill="inherit"/>
</svg>

<svg viewBox="0 0 16 16" xmlns="http://www.w3.org/2000/svg"><path d="M2.3 14.3a1 1 0 0 1-.7-.3 1 1 0 0 1-.3-.7v-8c0-.2.1-.5.3-.7.2-.2.5-.3.7-.3h3V2.7c0-.3.1-.5.3-.7.2-.2.5-.3.7-.3h3.4c.2 0 .5 0 .7.3.2.2.3.4.3.7v1.6h3c.2 0 .5.1.7.3.2.2.3.5.3.7v8c0 .3-.1.5-.3.7a1 1 0 0 1-.7.3H2.3Zm0-1h11.4v-8H2.3v8Zm4-9h3.4V2.7H6.3v1.6Z" fill="inherit"/><rect x="5.2" y="7.4" width="1.3" height="6.7" rx=".7" transform="rotate(-45 5.2 7.4)" fill="inherit"/><rect x="6.2" y="12.2" width="1.3" height="6.7" rx=".7" transform="rotate(-135 6.2 12.2)" fill="inherit"/></svg>
